src/assets/feature-shield.svg

<svg width="26" height="30" viewBox="0 0 26 30" fill="none" xmlns="http://www.w3.org/2000/svg">
<path d="M9.70726 14.2929C9.31673 13.9024 8.68357 13.9024 8.29304 14.2929C7.90252 14.6834 7.90252 15.3166 8.29304 15.7071L11.2694 18.6834C11.6599 19.0739 12.293 19.0739 12.6836 18.6834L18.6362 12.7308C19.0267 12.3403 19.0267 11.7071 18.6362 11.3166C18.2457 10.9261 17.6125 10.9261 17.222 11.3166L11.9765 16.5621L9.70726 14.2929Z" fill="#FFBE5C"/>
<path fill-rule="evenodd" clip-rule="evenodd" d="M15.9902 1.25988C14.0814 0.481081 11.9302 0.481081 10.0214 1.25988L2.59609 4.29928C1.86015 4.59641 1.25164 5.16032 0.830912 5.78617C0.409797 6.41259 0.119141 7.18681 0.119141 7.9724V13.8258C0.119141 20.8115 5.1683 27.3009 12.0528 29.203L12.056 29.2038C12.6683 29.3708 13.33 29.3708 13.9423 29.2038L13.9455 29.203C20.8295 27.301 25.8784 20.8124 25.8791 13.8272V13.8258L25.8925 7.97468L25.8925 7.9724C25.8925 7.18322 25.596 6.40829 25.1744 5.78426C24.7529 5.16036 24.1455 4.59737 23.4178 4.30019L15.9913 1.26031L15.9902 1.25988ZM3.34597 6.1534L10.7769 3.11168C12.2011 2.53081 13.8105 2.5308 15.2347 3.11168L22.6615 6.15167C22.9465 6.26795 23.2656 6.53144 23.5172 6.90388C23.7686 7.27603 23.8922 7.66724 23.8925 7.97123V7.9724L23.8792 13.8235L23.8791 13.8258C23.8791 19.8794 19.4626 25.6027 13.4148 27.2747C13.1478 27.3472 12.8505 27.3472 12.5835 27.2747C6.53567 25.6027 2.11914 19.8794 2.11914 13.8258V7.9724C2.11914 7.66466 2.24183 7.27222 2.49072 6.90198C2.73945 6.53199 3.05656 6.26991 3.34597 6.1534Z" fill="#FFBE5C"/>
</svg>

<svg fill="none" xmlns="http://www.w3.org/2000/svg" viewBox="0 0 26 30"><path d="M9.7 14.3a1 1 0 0 0-1.4 1.4l2.97 2.98a1 1 0 0 0 1.41 0l5.96-5.95a1 1 0 0 0-1.42-1.41l-5.24 5.24L9.7 14.3Z" fill="#FFBE5C"/><path fill-rule="evenodd" clip-rule="evenodd" d="M15.99 1.26a7.92 7.92 0 0 0-5.97 0L2.6 4.3A4 4 0 0 0 .83 5.79a4 4 0 0 0-.71 2.18v5.86c0 6.98 5.05 13.47 11.93 15.37a3.6 3.6 0 0 0 1.9 0c6.88-1.9 11.93-8.39 11.93-15.37l.01-5.86a4 4 0 0 0-.72-2.19 4.03 4.03 0 0 0-1.75-1.48l-7.43-3.04ZM3.35 6.16l7.43-3.05a5.92 5.92 0 0 1 4.45 0l7.43 3.04c.29.12.6.38.86.75.25.38.37.77.37 1.07l-.01 5.85c0 6.06-4.42 11.78-10.47 13.45-.26.08-.56.08-.83 0-6.04-1.67-10.46-7.4-10.46-13.44V7.97c0-.3.12-.7.37-1.07a2 2 0 0 1 .86-.75Z" fill="#FFBE5C"/></svg>
